X:1
T:More and More I Need Thee
T:More and More I Need Thee
T:William Howard Doane
T:Frances Jane (Fanny) Crosby, 1903
T:Public Domain Courtesy of the Cyber Hymnal™
T:Public Domain Courtesy of the Cyber Hymnal™
C:William Howard Doane
Z:Public Domain
Z:Courtesy of the Cyber Hymnal™
%%score ( 1 2 ) ( 3 4 )
L:1/8
Q:1/4=105
M:6/8
K:C
V:1 treble 
V:2 treble 
V:3 bass 
V:4 bass 
V:1
 [EG]2 [EG] [^D^F]2 [EG] | [^DA]3 [EG]3 | [CE]2 [EG] [Ec]2 [CE] | [B,D]3- [B,D]2 z | %4
w: 1.~More and more I|need Thee,|Pre- cious Friend di-|vine; *|
w: 2.~More and more I|need Thee,|Thou, my all in|all; *|
w: 3.~More and more I|need Thee,|In temp- ta- tion’s|hour; *|
w: 4.~More and more I|need Thee,|While the days go|by; *|
 [DF]2 [DF] [^CE]2 [DF] | [FA]3 [EG]3 | [DG]2 [D^F] [DF]2 [DA] | G3- [FG]2 z | %8
w: More and more I|need Thee,|In this heart of|mine. Thou|
w: More and more I|need Thee,|Lest I faint and|fall… I|
w: More and more I|need Thee,|Need Thy keep- ing|power; Let|
w: More and more I|need Thee,|While the mo- ments|fly; In|
 [EG]2 [EG] [^D^F]2 [EG] | [^DA]3 [EG]3 | [CE]2 [EG] [Gc]2 [Gd] | [Ge]3- [Ge]2 z | %12
w: * last led me|ev- er,|Still my re- fuge|be; *|
w: * am weak and|help- less,|Thou my strength must|be; *|
w: * my soul, up-|lift- ed,|Cling by faith to|Thee, *|
w: * Thy sec- ret|pre- sence,|Let my dwell- ing|be; *|
 [Fd]2 [Fc] [Fc]2 [FA] | [EG]3 [CE]2 [EG] | [Gc]3 [FB]3 | [Ec]3- [Ec]2 z || %16
w: Sav- ior, lov- ing|Sav- ior, A-|bide with|me. *|
w: Sav- ior, lov- ing|Sav- ior, A-|bide with|me. *|
w: Sav- ior, lov- ing|Sav- ior, A-|bide with|me. *|
w: Sav- ior, lov- ing|Sav- ior, A-|bide with|me. *|
"^Refrain" [FB]3- [FB]2 [FB] | [Ec]3- [Ec]2 [Ec] | [Fd]2 [Fd] [Ec]2 [Fd] | [Ge]3 [Ec]3 | %20
w: ||||
w: More * and|more, * I|need Thee, oh, I|need Thee;|
w: ||||
w: ||||
 [Fd]2 [Fc] [Fc]2 [FA] | [EG]3 [CE]2 [EG] | [Gc]3 [FB]3 | [Ec]3- [Ec]2 z |] %24
w: ||||
w: Sav- ior, lov- ing|Sav- ior, A-|bide with|me. *|
w: ||||
w: ||||
V:2
 x6 | x6 | x6 | x6 | x6 | x6 | x6 | D2 E x3 | x6 | x6 | x6 | x6 | x6 | x6 | x6 | x6 || x6 | x6 | %18
 x6 | x6 | x6 | x6 | x6 | x6 |] %24
V:3
 [C,C]2 [C,C] [C,A,]2 [C,G,] | [C,^F,]3 [C,G,]3 | [C,G,]2 [C,C] [C,G,]2 [C,G,] | %3
w: ~ ~ ~ ~|~ ~|~ ~ ~ ~|
 [G,,G,]3- [G,,G,]2 z | G,2 G, G,2 [G,B,] | [C,C]3 [C,C]3 | [D,B,]2 [D,A,] [D,A,]2 [D,C] | %7
w: ~ *|~ ~ ~ ~|~ ~|~ ~ ~ ~|
 (B,2 C [G,D]2) z | [C,C]2 [C,C] [C,A,]2 [C,G,] | [C,^F,]3 [C,G,]3 | [C,G,]2 [C,C] [E,C]2 [G,B,] | %11
w: ~ * *|~ ~ ~ ~|~ ~|~ ~ ~ ~|
 C3- C2 z | [F,A,]2 [F,A,] [F,A,]2 [F,C] | [C,C]3 [C,G,]2 [C,C] | [G,E]3 [G,,D]3 | %15
w: ~ *|~ ~ ~ ~|~ ~ ~|~ ~|
 [C,C]3- [C,C]2 z || [G,D]2 [G,D] [G,D]2 [G,D] | [C,C]2 [C,G,] [C,G,]2 [C,G,] | %18
w: ~ *|More and more, yes,|more and more, *|
 [G,B,]2 [G,B,] G,2 [G,B,] | [C,C]3 [C,G,]3 | [F,A,]2 [F,A,] [F,A,]2 [F,C] | [C,C]3 [C,G,]2 [C,C] | %22
w: ||||
 [G,E]3 [G,,D]3 | [C,C]3- [C,C]2 z |] %24
w: ||
V:4
 x6 | x6 | x6 | x6 | G,2 G, G,2 x | x6 | x6 | G,3- x3 | x6 | x6 | x6 | C3- C2 x | x6 | x6 | x6 | %15
 x6 || x6 | x6 | x3 G,2 x | x6 | x6 | x6 | x6 | x6 |] %24

